web/icons/clcks.svg

<svg width="53" height="53" viewBox="0 0 53 53" fill="none" xmlns="http://www.w3.org/2000/svg">
<rect width="52.81" height="52.81" rx="26.405" fill="url(#paint0_linear)"/>
<path d="M25.8364 30.5051C24.577 30.5051 23.6157 30.1549 22.9525 29.4544C22.2967 28.7539 21.9688 27.7591 21.9688 26.4699C21.9688 25.829 22.0694 25.2589 22.2706 24.7596C22.4718 24.2529 22.7475 23.8281 23.0978 23.4853C23.448 23.1351 23.8653 22.8706 24.3497 22.6917C24.8341 22.5129 25.3595 22.4234 25.9258 22.4234C26.2537 22.4234 26.5518 22.4495 26.82 22.5017C27.0883 22.5464 27.3231 22.6023 27.5243 22.6694C27.7255 22.729 27.8931 22.7923 28.0273 22.8594C28.1614 22.9264 28.2583 22.9786 28.3179 23.0159L27.8149 24.4243C27.5764 24.2976 27.297 24.1896 26.9765 24.1001C26.6636 24.0107 26.3059 23.966 25.9034 23.966C25.6352 23.966 25.3706 24.0107 25.1098 24.1001C24.8564 24.1896 24.6292 24.3349 24.428 24.5361C24.2342 24.7298 24.0777 24.9832 23.9585 25.2962C23.8392 25.6092 23.7796 25.9892 23.7796 26.4363C23.7796 26.794 23.8169 27.1294 23.8914 27.4424C23.9734 27.7479 24.1001 28.0124 24.2715 28.236C24.4503 28.4596 24.6813 28.6384 24.9645 28.7725C25.2477 28.8992 25.5905 28.9626 25.9929 28.9626C26.2462 28.9626 26.4735 28.9477 26.6747 28.9178C26.8759 28.888 27.0548 28.8545 27.2113 28.8172C27.3678 28.7725 27.5056 28.7241 27.6249 28.6719C27.7441 28.6198 27.8521 28.5713 27.949 28.5266L28.4297 29.9239C28.1838 30.0729 27.8372 30.207 27.3901 30.3263C26.943 30.4455 26.4251 30.5051 25.8364 30.5051ZM31.788 30.4604C31.3036 30.453 30.9086 30.4008 30.6031 30.3039C30.305 30.207 30.0666 30.0729 29.8877 29.9015C29.7163 29.7227 29.5971 29.5103 29.53 29.2644C29.4704 29.011 29.4406 28.7278 29.4406 28.4148V21.9428L31.1061 21.6745V28.0795C31.1061 28.2285 31.1173 28.3627 31.1396 28.4819C31.162 28.6011 31.203 28.7017 31.2626 28.7837C31.3297 28.8657 31.4228 28.9328 31.542 28.9849C31.6613 29.0371 31.8215 29.0706 32.0227 29.0855L31.788 30.4604ZM32.6979 27.4088C32.6979 26.9841 32.765 26.5854 32.8991 26.2128C33.0407 25.8327 33.2419 25.5048 33.5027 25.2291C33.7636 24.9459 34.0803 24.7224 34.4529 24.5584C34.8255 24.3945 35.2502 24.3125 35.7272 24.3125C36.0401 24.3125 36.327 24.3423 36.5879 24.4019C36.8487 24.4541 37.1021 24.5323 37.348 24.6367L37.0014 25.9669C36.845 25.9072 36.6736 25.8551 36.4873 25.8104C36.301 25.7657 36.0923 25.7433 35.8613 25.7433C35.3695 25.7433 35.0006 25.8961 34.7547 26.2016C34.5162 26.5071 34.397 26.9095 34.397 27.4088C34.397 27.9379 34.5088 28.3478 34.7323 28.6384C34.9633 28.929 35.362 29.0743 35.9284 29.0743C36.1296 29.0743 36.3457 29.0557 36.5767 29.0185C36.8077 28.9812 37.0201 28.9216 37.2138 28.8396L37.4486 30.2033C37.2548 30.2853 37.0126 30.3561 36.722 30.4157C36.4314 30.4753 36.1109 30.5051 35.7607 30.5051C35.2241 30.5051 34.7621 30.4269 34.3746 30.2704C33.9871 30.1064 33.6667 29.8866 33.4133 29.6109C33.1674 29.3352 32.9848 29.011 32.8656 28.6384C32.7538 28.2583 32.6979 27.8485 32.6979 27.4088ZM40.2319 26.5928C40.3958 26.414 40.5635 26.2277 40.7349 26.0339C40.9137 25.8402 41.0851 25.6501 41.2491 25.4638C41.413 25.2701 41.5658 25.0875 41.7074 24.9161C41.8564 24.7447 41.9831 24.5957 42.0874 24.469H44.0659C43.671 24.9236 43.2835 25.3595 42.9034 25.7768C42.5308 26.1867 42.121 26.6115 41.6739 27.0511C41.8974 27.2523 42.1284 27.4945 42.3669 27.7777C42.6054 28.0534 42.8364 28.3403 43.0599 28.6384C43.2835 28.9365 43.4884 29.2346 43.6747 29.5326C43.861 29.8307 44.0175 30.1027 44.1442 30.3486H42.2328C42.1135 30.1549 41.9757 29.9425 41.8192 29.7115C41.6701 29.473 41.5099 29.2383 41.3385 29.0073C41.1671 28.7688 40.9845 28.5415 40.7908 28.3254C40.6045 28.1093 40.4182 27.9267 40.2319 27.7777V30.3486H38.5664V21.9428L40.2319 21.6745V26.5928ZM46.7274 29.1526C47.033 29.1526 47.2491 29.1228 47.3758 29.0632C47.5024 29.0035 47.5658 28.888 47.5658 28.7166C47.5658 28.5825 47.4838 28.467 47.3199 28.3701C47.1559 28.2658 46.9063 28.1503 46.5709 28.0236C46.3101 27.9267 46.0717 27.8261 45.8556 27.7218C45.6469 27.6175 45.4681 27.4945 45.319 27.3529C45.17 27.2039 45.0545 27.0288 44.9725 26.8276C44.8905 26.6264 44.8495 26.3842 44.8495 26.101C44.8495 25.5495 45.0545 25.1136 45.4643 24.7932C45.8742 24.4727 46.4368 24.3125 47.1522 24.3125C47.5099 24.3125 47.8527 24.346 48.1806 24.4131C48.5085 24.4727 48.7693 24.5398 48.963 24.6143L48.6724 25.911C48.4787 25.8439 48.2663 25.7843 48.0353 25.7321C47.8117 25.68 47.5583 25.6539 47.2752 25.6539C46.7535 25.6539 46.4927 25.7992 46.4927 26.0898C46.4927 26.1569 46.5039 26.2165 46.5262 26.2687C46.5486 26.3208 46.5933 26.373 46.6604 26.4252C46.7274 26.4699 46.8169 26.522 46.9286 26.5816C47.0479 26.6338 47.1969 26.6934 47.3758 26.7605C47.7409 26.8946 48.0427 27.0288 48.2812 27.1629C48.5196 27.2896 48.7059 27.4312 48.8401 27.5877C48.9817 27.7367 49.0785 27.9044 49.1307 28.0907C49.1903 28.277 49.2201 28.4931 49.2201 28.739C49.2201 29.3203 49.0003 29.7599 48.5606 30.058C48.1284 30.3561 47.5136 30.5051 46.7163 30.5051C46.1946 30.5051 45.7587 30.4604 45.4084 30.371C45.0656 30.2816 44.8272 30.207 44.693 30.1474L44.9725 28.7949C45.2557 28.9067 45.5463 28.9961 45.8444 29.0632C46.1425 29.1228 46.4368 29.1526 46.7274 29.1526Z" fill="#4A4A4A"/>
<path d="M7.13743 35.2584L7.13379 17.3467L12.4258 29.9283L7.13743 35.2584Z" fill="#C4C4C4"/>
<path d="M19.9326 29.7854L7.13379 17.3467L12.4258 29.9283L19.9326 29.7854Z" fill="#8D8D8D"/>
<defs>
<linearGradient id="paint0_linear" x1="52.81" y1="0" x2="0" y2="52.81" gradientUnits="userSpaceOnUse">
<stop stop-color="#78ECF2"/>
<stop offset="1" stop-color="#71AFE5"/>
</linearGradient>
</defs>
</svg>

<svg width="53" height="53" fill="none" xmlns="http://www.w3.org/2000/svg"><rect width="52.81" height="52.81" rx="26.405" fill="url(#a)"/><path d="M25.836 30.505c-1.259 0-2.22-.35-2.883-1.05-.656-.701-.984-1.696-.984-2.985 0-.641.1-1.211.302-1.71.2-.507.476-.932.827-1.275.35-.35.767-.614 1.252-.793a4.517 4.517 0 0 1 1.576-.269c.328 0 .626.027.894.079.268.044.503.1.704.167a3.124 3.124 0 0 1 .794.347l-.503 1.408a4.191 4.191 0 0 0-.838-.324 3.913 3.913 0 0 0-1.074-.134c-.268 0-.532.045-.793.134-.254.09-.48.235-.682.436-.194.194-.35.447-.47.76-.119.313-.178.693-.178 1.14 0 .358.037.693.111 1.006.082.306.21.57.38.794.18.224.41.402.694.537.283.126.625.19 1.028.19.253 0 .48-.015.682-.045.2-.03.38-.063.536-.1.157-.046.295-.094.414-.146.12-.052.227-.1.324-.145l.48 1.397c-.245.149-.592.283-1.039.402a6.06 6.06 0 0 1-1.554.18Zm5.952-.045c-.484-.007-.88-.06-1.185-.156a1.837 1.837 0 0 1-.715-.402 1.46 1.46 0 0 1-.358-.638 3.718 3.718 0 0 1-.09-.85v-6.471l1.666-.269v6.405c0 .15.011.284.034.403.022.12.063.22.123.302a.73.73 0 0 0 .279.2c.12.053.28.087.48.101l-.234 1.375Zm.91-3.051c0-.425.067-.824.201-1.196a2.871 2.871 0 0 1 1.554-1.655 3.135 3.135 0 0 1 1.274-.245c.313 0 .6.03.86.089.262.052.515.13.761.235l-.347 1.33a4.175 4.175 0 0 0-.514-.157 2.688 2.688 0 0 0-.626-.067c-.491 0-.86.153-1.106.459-.239.305-.358.707-.358 1.207 0 .529.112.939.335 1.23.231.29.63.435 1.196.435.202 0 .418-.018.649-.056.23-.037.443-.096.637-.178l.235 1.363a3.906 3.906 0 0 1-.727.213c-.29.06-.611.09-.961.09-.537 0-.999-.08-1.386-.236a2.726 2.726 0 0 1-.962-.66 2.658 2.658 0 0 1-.547-.972 4.34 4.34 0 0 1-.168-1.23Zm7.534-.816c.164-.179.331-.365.503-.56.179-.193.35-.383.514-.57.164-.193.317-.376.458-.547.15-.171.276-.32.38-.447h1.979c-.395.455-.783.89-1.163 1.308-.372.41-.782.834-1.23 1.274.224.201.455.444.694.727.238.275.47.562.693.86a12.797 12.797 0 0 1 1.084 1.71h-1.911c-.12-.193-.257-.405-.414-.636-.149-.239-.31-.474-.48-.705a8.123 8.123 0 0 0-.548-.682 4.26 4.26 0 0 0-.56-.547v2.57h-1.665v-8.405l1.666-.269v4.919Zm6.495 2.56c.306 0 .522-.03.649-.09.126-.06.19-.175.19-.346 0-.134-.082-.25-.246-.347a4.308 4.308 0 0 0-.75-.346c-.26-.097-.498-.198-.714-.302a2.201 2.201 0 0 1-.537-.37 1.575 1.575 0 0 1-.347-.524 1.924 1.924 0 0 1-.123-.727c0-.552.206-.987.615-1.308.41-.32.973-.48 1.688-.48.358 0 .7.033 1.029.1.328.06.588.127.782.201l-.29 1.297a5.972 5.972 0 0 0-.638-.179 3.362 3.362 0 0 0-.76-.078c-.521 0-.782.145-.782.436 0 .067.01.127.033.179a.42.42 0 0 0 .134.156c.067.045.157.097.269.157.119.052.268.111.447.178.365.135.667.269.905.403a1.9 1.9 0 0 1 .56.425c.14.149.237.316.29.503.06.186.09.402.09.648 0 .581-.22 1.02-.66 1.319-.433.298-1.047.447-1.845.447-.521 0-.957-.045-1.308-.134a5.31 5.31 0 0 1-.715-.224l.28-1.352c.283.112.573.201.871.268.298.06.593.09.883.09Z" fill="#4A4A4A"/><path d="m7.137 35.258-.003-17.911 5.292 12.581-5.289 5.33Z" fill="#C4C4C4"/><path d="m19.933 29.785-12.8-12.438 5.293 12.581 7.507-.143Z" fill="#8D8D8D"/><defs><linearGradient id="a" x1="52.81" y1="0" x2="0" y2="52.81" gradientUnits="userSpaceOnUse"><stop stop-color="#78ECF2"/><stop offset="1" stop-color="#71AFE5"/></linearGradient></defs></svg>
